!!!!SEGMENT: pl-wn--mus-8167--002_zelenski-wladyslaw--oboja-wiosna.krn
!!!cenid: 18xx:3642
!!!COM: Żeleński, Władysław
!!!COM-rismid: pe41024455
!!!CDT:
!!!CNT:
!!!OTL: Oboja wiosna
!!!PDT:
!!!AGN:
!!!SMS-siglum: PL-Wn
!!!SMS-shelfmark: Mus.8167
!!!SMS-shelfwork: 002 W
!!!SMS-variant:
!!!SMS-altvar:
!!!NIFC-rismid:
!!!URL-scan: https://polona.pl/item/humoreska-oboja-wiosna,NDU5Mzc1Mzg/0/#info:metadata
!!!ONB-nifc:
!!!key: B
**kern	**text	**text	**dynam	**kern	**text	**text	**dynam
*part2	*part2	*part2	*part2	*part1	*part1	*part1	*part1
*staff2	*staff2	*staff2	*	*staff1	*staff1	*staff1	*
*I"Basso	*	*	*	*I"Śpiew	*	*	*
*I'B.	*	*	*	*I'Ś	*	*	*
*Ibass	*	*	*	*Isoprn	*	*	*
*ICvox	*	*	*	*ICvox	*	*	*
*clefF4	*	*	*	*clefG2	*	*	*
*k[b-e-]	*	*	*	*k[b-e-]	*	*	*
*B:	*	*	*	*B:	*	*	*
*M4/4	*	*	*	*M4/4	*	*	*
*met(c)	*	*	*	*met(c)	*	*	*
*^	*	*	*	*	*	*	*
!	!	!	!	!LO:DY:b	!	!	!	!
4r	4F\	Co	.	p	4r	.	.	.
=1	=1	=1	=1	=1	=1	=1	=1	=1
*	*	*	*	*	*^	*	*	*
!!LO:TX:t=P:problem:tekst spine'ów 3 oraz 7 znajdują się nad systemem
!	!	!	!	!	!	!	!	!	!LO:DY:b
4ryy	2F\	kwie-	.	.	1r	4r	.	.	p
4A/	.	.	.	.	.	4cc\	Co	.	.
[2c/	4F\	-cia,	.	.	.	[2ee-\	kwie-	.	.
.	4G-X\	co	.	.	.	.	.	.	.
=2	=2	=2	=2	=2	=2	=2	=2	=2	=2
2c/]	4Gn\	kwie-	.	.	2r	2.ee-\]	.	.	.
.	8G\	-cia	.	.	.	.	.	.	.
.	8B-\	i	.	.	.	.	.	.	.
!	!	!	!	!	!	!	!	!	!LO:DY:a
4ryy	4A\	buj-	.	.	2ff/	.	.	Co	p
8B-/	8G\	-nie	.	.	.	8ee-\	-cia,	.	.
8A/	8F\	co	.	.	.	8ee-\	co	.	.
=3	=3	=3	=3	=3	=3	=3	=3	=3	=3
4B-/	4BB-\ 4F	kwie-	.	.	4gg/	4dd\	kwie-	kwie-	.
8B-/	8BB-\ 8F	-cia	.	.	8ff/	8dd\	-cia	-cia	.
8B-/	8BB-\ 8F	.	.	.	8ff/	8dd\	i	i	.
4.G/	4.BB-\	.	.	.	4b-/	4.b-\	buj-	buj	.
.	.	.	.	.	8ee-/	.	.	-nie	.
8G/	8BB-\	.	.	.	8ee-/	8b-\	-nie	tchnie	.
!!LO:LB:g=orignal
=4	=4	=4	=4	=4	=4	=4	=4	=4	=4
8F/	[2BB-\	tchnie	.	.	8dd/	8b-\	tchnie–	słod-	.
8r	.	.	.	.	16cc/	8r	.	-ko	.
.	.	.	.	.	16cc/	.	. 	w swej	.
4r	.	.	.	.	8b-/L	4r	.	kra-	.
.	.	.	.	.	8g/J	.	.	.	.
2r	8BB-\]	.	.	.	8f/	2r	.	-sie	.
.	8D\	o-	.	.	8r	.	.	.	.
.	8C\	-gró-	.	.	4r	.	.	.	.
.	16BB-\	-dek	.	.	.	.	.	.	.
.	16BB-\	jak	.	.	.	.	.	.	.
=5	=5	=5	=5	=5	=5	=5	=5	=5	=5
4ryy	4B-\	raj,	.	.	4r	4ryy	.	.	.
4G/	8G\L	o-	.	.	4dd/	4b-\	o-	.	.
.	8F\J	.	.	.	.	.	.	.	.
4G/	4En\	-gró-	.	.	4cc/	4b-\	-gró-	.	.
8G/	8D\	-dek	.	.	8dd/	8b-\	-dek	.	.
8G/	8C\	jak	.	.	8een/	8b-\	jak	.	.
=6	=6	=6	=6	=6	=6	=6	=6	=6	=6
8F/L	[2F\	raj!	.	.	[2ff/	8a\L	raj!	.	.
8A/	.	.	.	.	.	8cc\	.	.	.
8c/	.	.	.	.	.	8ee-X\	.	.	.
8B-/J	.	.	.	.	.	8dd\J	.	.	.
4A/	4F\]	.	.	.	4.ff/]	4cc\	.	.	.
4r	4ryy	.	.	.	.	4r	.	.	.
.	.	.	.	.	8ee-X/	.	.	co	.
=7	=7	=7	=7	=7	=7	=7	=7	=7	=7
8r	1r	.	.	.	[2dd/	8r	.	dzie-	.
8F#X/	.	.	.	.	.	8a\	co	.	.
8D/L	.	.	.	.	.	8f#X\L	dzie-	.	.
8A/J	.	.	.	.	.	8cc\J	.	.	.
8G/	.	.	.	.	8dd/L]	8b-\	-wic!	.	.
8r	.	.	.	.	8b-/J	8r	.	-wic	.
4r	.	.	.	.	8ff/	4r	.	mło-	.
.	.	.	.	.	8ee-/	.	.	.	.
!!LO:LB:g=orignal
=8	=8	=8	=8	=8	=8	=8	=8	=8	=8
8r	1r	.	.	.	4dd/	8r	.	-dzień-	.
8F#X/	.	.	.	.	.	8a\	mło-	.	.
8D/L	.	.	.	.	8dd/	8f#X\L	-dzień-	-ców	.
8A/J	.	.	.	.	8dd/	8cc\J	.	roz-	.
8G/	.	.	.	.	4dd/	8b-\	-ców	-kwi-	.
8r	.	.	.	.	.	8r	.	.	.
4r	.	.	.	.	8cc/	4r	-ta	-ta	.
.	.	.	.	.	8b-/	.	.	na	.
=9	=9	=9	=9	=9	=9	=9	=9	=9	=9
4r	4ryy	.	.	.	4a/	4r	.	cza-	.
4F#X/	4AA\	.	.	.	8dd/	4a\	Po-	-sie,	.
.	.	.	.	.	8dd/	.	.	Pod-	.
4G/	4AA\	.	.	.	4cc#X/ 4een	4a\	-dwój-	-wój-	.
8G/	8AA\	.	.	.	8bn/ 8dd	8a\	-ny,	-ny,	.
8G/	8AA\	.	.	.	8cc#/ 8ee	8a\	och	och!	.
=10	=10	=10	=10	=10	=10	=10	=10	=10	=10
4F#X/	4D\	.	.	.	4dd/ 4ff#X	4a\	maj!	maj–	.
!	!	!	!	!	!	!	!	!	!LO:DY:a
4c/	4F#\	.	.	.	[2aa/	[2dd\	och,	.	f
4Bn/	4G\	.	.	.	.	.	.	.	.
8B-X/	8En\	.	.	.	8aa/]	8dd\]	.	.	.
8B-/	8E\	.	.	.	8gg/	8dd\	po-	.	.
=11	=11	=11	=11	=11	=11	=11	=11	=11	=11
4A/	2A\	.	.	.	(4ff#X/	((4dd\	.	.	.
4G#X/	.	.	.	.	8een/L	2ccn\))	-dwój-	.	.
.	.	.	.	.	8dd/J	.	.	.	.
4Gn/	2ryy	.	.	.	4ee/)	.	.	.	.
8F#X/	.	.	.	.	8bn,/	8a\	-ny	.	.
8En/	.	.	.	.	8cc#X/	8a\	och!	.	.
!!LO:LB:g=original
=12	=12	=12	=12	=12	=12	=12	=12	=12	=12
!	!	!	!	!	!	!	!	!	!LO:DY:a
1r	4D,\	maj	.	.	4dd/	4f#X\	maj!	.	pp
.	4D\	Hej	.	.	4r	4ryy	.	.	.
.	(4E-X\	wio-	.	.	4r	4ryy	.	.	.
.	8En\)	.	.	.	4r	4ryy	.	.	.
.	8E\	-sna	.	.	.	.	.	.	.
=13	=13	=13	=13	=13	=13	=13	=13	=13	=13
4r	2F\	go-	.	.	1r	4ryy	.	.	.
4A/	.	.	.	.	.	4cc\	Hej	.	.
[2c/	4F\	-dy	.	.	.	(2ee-\	wio-	.	.
.	4G-X\	wy-	.	.	.	.	.	.	.
=14	=14	=14	=14	=14	=14	=14	=14	=14	=14
2c/]	4Gn\	-pra-	.	.	2r	2.ee-\)	.	.	.
.	8G\	-wia	.	.	.	.	.	.	.
.	8B-\	nam	.	.	.	.	.	.	.
4ryy	4A\	swo-	.	.	2ff/	.	.	Hej!–	.
8B-/	8F\	-je,	.	.	.	8ee-\	-sna	.	.
8A/	8F\	hej	.	.	.	8ee-\	to	.	.
=15	=15	=15	=15	=15	=15	=15	=15	=15	=15
!	!	!	!	!	!	!	!	!	!LO:DY:a
4B-/	4BB-\ 4F	.	.	.	4gg/	4dd\	go-	wio-	f
8A-X/	8BB-\ 8F	.	.	.	8ff/	8dd\	-dy	-sna	.
8A-/	8BB-\ 8F	.	.	.	8ff/	8dd\	wy-	to	.
(4G/	4.BB-\	.	.	.	4b-/	(4b-\	-pra-	go-	.
8G-X/)	.	.	.	.	8ee-/	8an\)	.	-dy	.
8G-/	8BB-\	.	.	.	8ee-/	8a\	-wia	wy-	.
!!LO:PB:g=original
=16	=16	=16	=16	=16	=16	=16	=16	=16	=16
8F/	[2BB-\	nam	.	.	8dd/	8b-\	nam	-pra-	.
8r	.	.	.	.	16dd/	8r	.	-wia	.
.	.	.	.	.	16dd/	.	.	nam	.
4r	.	.	.	.	8b-/L	4r	.	swo-	.
.	.	.	.	.	8g/J	.	.	.	.
4r	8BB-\]	.	.	.	8f/	2ryy	.	-je	.
.	8D\	i	.	p	8r	.	.	.	.
4r	8C\	bło-	.	.	4r	.	.	.	.
.	16BB-\	-go	.	.	.	.	.	.	.
.	16BB-\	tu	.	.	.	.	.	.	.
=17	=17	=17	=17	=17	=17	=17	=17	=17	=17
4r	4B-\	z nią,	.	.	4r	4ryy	.	.	.
4G/	8G\L	.	.	.	4dd/	4b-\	I	.	.
.	8F\J	.	.	.	.	.	.	.	.
4G/	4En\	.	.	.	4cc/	4b-\	bło-	.	.
8G/	8D\	.	.	.	8dd/	8b-\	-go	.	.
8G/	8C\	.	.	.	8een/	8b-\	tu	.	.
=18	=18	=18	=18	=18	=18	=18	=18	=18	=18
(8F/L	[2F\	.	.	.	[2ff/	(8a\L	z nią	.	.
8A/	.	.	.	.	.	8cc\	.	.	.
8c/	.	.	.	.	.	8ee-X\	.	.	.
8B-/J	.	.	.	.	.	8dd\J	.	.	.
4A/)	4F\]	.	.	.	4.ff,/]	4cc\)	.	.	.
4r	4ryy	.	.	.	.	4r	.	.	.
.	.	.	.	.	8ee-/	.	.	Dzie-	.
=19	=19	=19	=19	=19	=19	=19	=19	=19	=19
!	!	!	!	!LO:DY:a	!	!	!	!	!
8r	1r	.	.	p	([2dd/	8r	.	-wi-	p
8F#X/	.	.	.	.	.	8a\	dzie-	.	.
8D/L	.	.	.	.	.	8f#X\L	-wi-	.	.
8A/J	.	.	.	.	.	8cc\J	.	.	.
8G/	.	.	.	.	8dd/L]	8b-\	-ce	.	.
8r	.	.	.	.	8b-/J	8r	.	-ce	.
4r	.	.	.	.	8ff/)	4r	.	.	.
.	.	.	.	.	8ee-/	.	.	mło-	.
!!LO:LB:g=original
=20	=20	=20	=20	=20	=20	=20	=20	=20	=20
8r	4r	.	.	.	4dd/	8r	.	-dzień-	.
8F#X/	.	.	.	.	.	8a\	mło-	-.	.
8D/L	8r	.	.	.	8dd/	8f#X\L	-dzień-	-ce	.
8A/J	8F#X\	mło-	.	.	8dd/	8cc\J	.	dłoń	.
8G/	8G\L	-dzień-	.	.	4dd/	8b-\	-ce	w_dło-	.
4A-X/	8F#X\J	.	.	.	.	4b-\	och!	.	.
.	8E-\	-ce	.	.	8ee-/	.	.	-ni	.
8A-/	8D\	po	.	.	8ff/	8b-\	po	po-	.
=21	=21	=21	=21	=21	=21	=21	=21	=21	=21
4.G/	(4E-\	raj-	.	.	4gg/	(4b-\	raj-	dwo-	.
.	8D\)	.	.	.	8ff/	8bn\)	.	-je,	.
8G/	8D\	-sku	.	.	8ff/	8b\	-sku	dłoń	.
8G/	8C\	śnią	.	.	8ee-/L	8cc\	śnią	w_dło-	.
8r	8ryy	.	.	.	8g/J	8r	.	.	.
4r	4ryy	.	.	.	8a/	4r	.	-ni	.
.	.	.	.	.	8b/	.	.	po	.
=22	=22	=22	=22	=22	=22	=22	=22	=22	=22
8r	4r	.	.	.	4dd/	4r	.	raj-	.
8F/	.	.	po	.	.	.	.	.	.
8G/	4E-\	och	raj-	.	8cc/	8r	.	-sku	.
8A/	.	.	-sku	.	8cc/	8f\	och	och	.
(4B-/	(4D\	śnią	.	.	(4ff/	(4f\	śnią	śnią	.
8A/)	8F\)	.	.	.	8aa/)	8cc\)	.	.	.
8A/	8E-\	po	po	.	8gg/	8cc\	po	po	.
=23	=23	=23	=23	=23	=23	=23	=23	=23	=23
((4A-X/	(4D\	raj-	raj-	.	4ff/	4cc\	raj-	raj-	.
2G/)	8G\L	.	.	.	2b-/	2b-\	-sku	-sku,	.
.	8F\	.	.	.	.	.	.	.	.
.	8E-\)	.	.	.	.	.	.	.	.
.	8D\J	.	.	.	.	.	.	.	.
8G-X/)	8C\	-sku	.	.	8ff	8b-\	och	och	.
8G-/	8C\	och	-sku	.	8ee-/	8b-\	po	po	.
!!LO:LB:g=original
=24	=24	=24	=24	=24	=24	=24	=24	=24	=24
4F/	4F\	śnią	śnią,	.	2.dd/	2.b-\	raj-	raj-	.
4r	8A\	Och	.	.	.	.	.	.	.
.	8G\	po	.	.	.	.	.	.	.
4r	4F\	raj-	.	.	.	.	.	.	.
4E-/	4FF\	-sku	gdy	.	4cc/	4a\	-sku	-sku	.
*v	*v	*	*	*	*	*	*	*	*
*	*	*	*	*v	*v	*	*	*
=25||	=25||	=25||	=25||	=25||	=25||	=25||	=25||
*M6/8	*	*	*	*M6/8	*	*	*
*^	*	*	*	*^	*	*	*
4D/	4BB-\	śnią	śnią.–	.	4b-/	4f\	śnią.	.	.
8r	8r	.	.	.	8r	2ryy	.	.	.
4r	4.BB-\	Nie	.	p	4r	.	.	.	.
8r	.	.	.	.	8r	.	.	.	.
*	*	*	*	*	*v	*v	*	*	*
=26	=26	=26	=26	=26	=26	=26	=26	=26
2.r	4.C-X\	wszy-	.	.	2.r	.	.	.
.	4Cn\	-stkoć	.	.	.	.	.	.
.	8E-\	to	.	.	.	.	.	.
*v	*v	*	*	*	*	*	*	*
=27||	=27||	=27||	=27||	=27||	=27||	=27||	=27||
*k[b-e-a-d-g-c-]	*	*	*	*k[b-e-a-d-g-c-]	*	*	*
*^	*	*	*	*^	*	*	*
!	!	!	!	!	!LO:TX:a:t=Dolce et molto tranquillo	!	!	!	!
4r	[2.D-\	kwie-	.	.	4r	4ryy	.	.	.
8G-/	.	.	.	.	8dd-/	8b-\	Nie	Nie	.
(4.B-/	.	.	.	.	[4.gg-/	(4.dd-\	wszyst-	wszyst-	.
=28	=28	=28	=28	=28	=28	=28	=28	=28	=28
4.A-/)	4.D-\]	.	.	.	8gg-/]	4.cc-\	.	.	.
.	.	.	.	.	8ff/	.	.	-koć	.
.	.	.	.	.	8cc-/	.	.	to	.
4G-/	4.D-\	-cie	.	.	8b-/	8b-\)	.	kwie-	.
.	.	.	.	.	8a-/	8a-\	-koć	-cie	.
8G-/	.	.	.	.	8b-/	8b-\	to	co	.
!!LO:LB:g=original
=29	=29	=29	=29	=29	=29	=29	=29	=29	=29
(4.Gn/	[2.D-\	da	.	.	8ff-X/	(4.b-\	kwie-	bu-	.
.	.	.	.	.	8ee-/	.	.	-ja	.
.	.	.	.	.	8b-/	.	.	ku	.
8A-/L)	.	.	.	.	4cc-/	4cc-\)	.	wio-	.
8E-/J	.	.	.	.	.	.	.	.	.
8F/	.	.	.	.	8cc-/	8a-\	-cie	-śnie	.
=30	=30	=30	=30	=30	=30	=30	=30	=30	=30
4G-/	8D-\L]	.	.	.	4b-/	4b-\	da	da	.
.	8E-\J	.	.	.	.	.	.	.	.
8G-/	8D-\	ja-	.	.	8b-/	8b-\	ja-	ja-	.
4G-/	8Cn\L	-go-	.	.	4ee-/	4b-\	-go-	-go-	.
.	8BB-\J	.	.	.	.	.	.	.	.
8G-/	8C\	-dy	.	.	8a-/	8a-\	-dy	-dy	.
=31	=31	=31	=31	=31	=31	=31	=31	=31	=31
8G-/L	[4.D-\	już	.	.	[4.a-/	[4.a-\	już.–	już,–	.
8F/	.	.	.	.	.	.	.	.	.
8E-/J	.	.	.	.	.	.	.	.	.
4F/	4D-\]	.	.	.	4a-/]	4a-\]	.	.	.
8r	8E-\	nie	.	pp	8r	8ryy	.	.	.
=32	=32	=32	=32	=32	=32	=32	=32	=32	=32
4r	(2.D-\	wszyst-	.	.	4r	4ryy	.	.	.
8G-/	.	.	nie	.	8dd-/	8b-\	nie	nie	.
(4.B-/	.	.	wszyst-	.	[4.gg-/	(4.dd-\	wszyst-	wszyst–	.
=33	=33	=33	=33	=33	=33	=33	=33	=33	=33
4.A-/)	4D-\	.	.	.	8gg-/]	4.cc-\	.	.	.
.	.	.	.	.	8ff/	.	.	-kać	.
.	8Dn\)	.	.	.	8cc-/	.	.	ta	.
4G-/	4E-\	-kać	-kać	.	8b-/	8b-\)	.	mło-	.
.	.	.	.	.	8a-/	8a-\	-kać,	-dziez	.
(8G-/	8E-\	nie	nie	.	8b-/	8b-\	nie	co	.
!!LO:PB:g=original
=34	=34	=34	=34	=34	=34	=34	=34	=34	=34
[4.G-/)	(4.D-\	wszyst-	wszyst-	.	[4.ff/	[4.b-\	wszyst-	ma	.
4G-/]	4Cn\)	.	.	.	8ff/]	8b-\]	.	.	.
.	.	.	.	.	8ee-/	8b-\	-kać	się	.
8F/	8F\	-kać	-kać}	.	8ccn/	8an\	to	mi-	.
=35	=35	=35	=35	=35	=35	=35	=35	=35	=35
!	!	!	!	!	!	!	!	!	!LO:DY:a
8F/	8BB-\	.	mło-	pp	8dd-/	8b-/	mło-	-ło-	pp
8G-/	8BB-\	.	-dzież	.	8ccn/	8an\	-dzież	-śnie	.
8F/	8BB-\	.	po-	.	8dd-/	8b-\	po-	po-	.
8G-/	8AA-\	.	-bie-	.	8ee-/	8cc-X\	-bie-	-bie-	.
8G-/	8AA-\	.	-rze	.	8b-/	8b-\	-rze	-rze	.
8A-/	8AA-\	.	się	.	8cc-/	8a-X\	się	się	.
=36	=36	=36	=36	=36	=36	=36	=36	=36	=36
[4.F/	[4.D-\	.	tuż!–	.	[4.dd-/	[4.a-\	tuż!–	tuż!–	.
4F/]	4D-\]	.	.	.	4dd-/]	4a-\]	.	.	.
8r	8E-\	Hej	.	.	8r	8ryy	.	.	.
=37	=37	=37	=37	=37	=37	=37	=37	=37	=37
4r	[2.D-\	wio-	.	.	4r	4ryy	.	.	.
8G-/	.	.	.	.	8dd-/	8b-\	Oj	Oj	.
(4.B-/	.	.	.	.	(4.gg-/	(4.dd-\	wio-	wio-	.
!!LO:LB:g=original
=38	=38	=38	=38	=38	=38	=38	=38	=38	=38
4.A-/)	4.D-\]	.	.	.	8gg-/)	(4.cc-\)	.	.	.
.	.	.	.	.	8ff/	.	.	-sna	.
.	.	.	.	.	8cc-/	.	.	z_tym	.
4.G-/	4D-\	-sna	-sna	.	8b-/	8b-\)	.	kwia-	.
.	.	.	.	.	8a-/	8a-\	-sna	-tem	.
.	8D-\	nie-	.	.	8b-/	8b-\	wciąż	wciaż	.
=39	=39	=39	=39	=39	=39	=39	=39	=39	=39
(4.Gn/	[2.D-\	-wie-	i-	.	8ff-X/	4.b-\	i-	i-	.
.	.	.	.	.	8ee-/	.	.	-gra	.
.	.	.	.	.	8b-/	.	.	o-	.
8A-/)	.	.	.	.	8cc-/	4cc-\	-gra	-błęd-	.
8E-/	.	.	-gra	.	8cc-/	.	.	-nie	.
8F/	.	.	nie-	.	8cc-/	8a-\	nie-	nie-	.
=40	=40	=40	=40	=40	=40	=40	=40	=40	=40
4.G-/	8D-\L]	.	-wie-	.	4.cc-/	4.b-\	-wie-	-wie-	.
.	8E-\	.	.	.	.	.	.	.	.
.	8D-\J	.	.	.	.	.	.	.	.
4G-/	8Cn\L	-le	-le	.	4ee-/	4b-\	-le	-le	.
.	8BB-\J	.	.	.	.	.	.	.	.
8G-/	8C\	oń	oń	.	8a-/	8a-\	oń	oń	.
=41	=41	=41	=41	=41	=41	=41	=41	=41	=41
8G-/L	[4.D-\	dba	dba	.	[4.a-/	[4.a-\	dba,–	dba,–	.
8F/	.	.	.	.	.	.	.	.	.
8E-/J	.	.	.	.	.	.	.	.	.
4F/	4D-\]	.	.	.	4a-/]	4a-\]	.	.	.
8r	8E-\	Po-	.	.	8r	8ryy	.	.	.
=42	=42	=42	=42	=42	=42	=42	=42	=42	=42
4r	[2.D-\	-ło-	.	.	4r	4ryy	.	.	.
8G-/	.	.	Po-	.	8dd-/	8b-\	Po-	Po-	.
(4.B-/	.	.	-ło-	.	[4.gg-/	(4.dd-\	-ło-	-ło-	.
!!LO:LB:g=original
=43	=43	=43	=43	=43	=43	=43	=43	=43	=43
4.A-/)	(4D-\]	.	.	.	8gg-/]	4cc-\)	.	.	.
.	.	.	.	.	8ff/	.	.	-wa	.
.	8Dn\)	.	.	.	8cc-/	8cc-\	-wa	bo	.
4G-/	4E-\	-wa	-wa	.	8b-/	8b-\	wię-	wię-	.
.	.	.	.	.	8a-/	8a-\	-ksza	-ksza	.
8G-/	8E-\	bo	bo	.	8b-/	8b-\	ja-	ja-	.
=44	=44	=44	=44	=44	=44	=44	=44	=44	=44
[4.G-/	4.D-\	więk-	więk-	.	[4.ff/	[4.b-\	-ło-	-ło-	.
8G-/]	4Cn\	-sza	.	.	8ff/]	8b-\]	.	.	.
8G-/	.	.	-sza}	.	8ee-/	8b-\	-wa	-wa	.
8F/	8F\	.	po-	.	8ccn/	8an\	po-	.	.
=45	=45	=45	=45	=45	=45	=45	=45	=45	=45
8F/	8BB-\	.	-wię-	.	8dd-/	8b-\	-wię-	.	.
8F/	8BB-\	.	-dnie	.	8ccn/	8an\	-dnie	.	.
8F/	8BB-\	.	za	.	8dd-/	8b-\	za-	.	.
8B-/	8G-\	.	mie-	.	8ee-/	8cc\	.	.	.
8B-/	8G-\	.	-siąc	.	8dd-/	8dd-\	-mie-	.	.
8B-/	8G-\	.	za	.	8ee-/	8cc\	-siąc	.	.
=46	=46	=46	=46	=46	=46	=46	=46	=46	=46
[4.An/	[4.F\	.	dwa.–	.	[4.ff/	4.ccn\	za	.	.
4A/]	4F\]	.	.	.	4ff/]	4cc\	dwa,	.	.
8F/	8F\	Toż	Toż	.	8r	8ryy	.	.	.
=47	=47	=47	=47	=47	=47	=47	=47	=47	=47
(4.F/	(4.F\	dum-	dum-	.	4r	4.ryy	.	.	.
.	.	.	.	.	8ccn/	.	Toż	.	.
4F/	4F\	.	.	.	[4.ee-/	[4.ccn\	dum-	.	.
8G-/)	8G-\)	.	.	.	.	.	.	.	.
!!LO:LB:g=original
=48	=48	=48	=48	=48	=48	=48	=48	=48	=48
[4.F/	[4.F\	-ka	-ka	.	8ee-/]	8cc\]	.	.	.
.	.	.	.	.	8dd-/	8b-\	-ka	.	.
.	.	.	.	.	8ccn/	8an\	sio-	.	.
4F/]	4F\]	.	.	.	[4.ee-/	[4.ccn\	-strzy-	.	.
8G-/	8G-\	sio-	sio-	.	.	.	.	.	.
=49	=49	=49	=49	=49	=49	=49	=49	=49	=49
[4.F/	[4.F\	-strzy-	-strzy-	.	8ee-/]	8cc\]	.	.	.
.	.	.	.	.	8dd-/	8b-\	-co	.	.
.	.	.	.	.	8ccn/	8an\	ku	.	.
8F/]	8F\]	.	.	.	(4.ff/	(4.dd-\	kwie-	.	.
8Gn/	8G\	-co	-co	.	.	.	.	.	.
8An/	8A\	ku	ku	.	.	.	.	.	.
=50	=50	=50	=50	=50	=50	=50	=50	=50	=50
[4.B-/	[4.B-\	kwie-	kwie-	.	4ff/	4dd-\	.	.	.
.	.	.	.	.	8een/)	8ccn\)	.	.	.
8B-/]	8B-\]	.	.	.	[4.ff/	[4.dd-\	-ciu	.	.
8A-/	8A-X\	-ciu,	-ciu,	.	.	.	.	.	.
8G-/	8G-X\	ku	ku	.	.	.	.	.	.
=51	=51	=51	=51	=51	=51	=51	=51	=51	=51
[2.F/	[2.F\	mło-	mło-	.	4ff/]	4dd-\]	.	.	.
.	.	.	.	.	8ccn/	8an\	ku	.	.
.	.	.	.	.	8ee-/L	8ccn\L	kwie-	.	.
.	.	.	.	.	8dd-/	8b-\	.	.	.
.	.	.	.	.	8b-/J	8gn\J	.	.	.
!!LO:LB:g=original
=52	=52	=52	=52	=52	=52	=52	=52	=52	=52
8F/]	8F\]	.	.	.	4ccn/	4an\	-dzi	.	.
8E-/	8E-\	-dzi	-dzi	.	.	.	.	.	.
8F/	8F\	roz-	roz-	.	8r	2ryy	.	.	.
(4D-/	(4D-\	-kwi-	-kwi-	.	4r	.	.	.	.
8C-/)	8C-\)	.	.	.	8r	.	.	.	.
*	*	*	*	*	*v	*v	*	*	*
=53	=53	=53	=53	=53	=53	=53	=53	=53
4.BB-/	4.ryy	-ta	-ta	.	2.r	.	.	.
4.G-/	4.G-\	się	się	.	.	.	.	.
=54	=54	=54	=54	=54	=54	=54	=54	=54
*	*	*	*	*	*^	*	*	*
[4.F/	[4.F\	w łzach	w łzach	.	4r	4ryy	.	.	.
!	!	!	!	!	!LO:TX:a:t=dolce	!	!	!	!
.	.	.	.	.	8ccn/	8an\	ku	.	.
4F/]	4F\]	.	.	.	[4.ee-/	[4.ccn\	mło-	.	.
8G-/	8G-\	ku	ku	.	.	.	.	.	.
=55	=55	=55	=55	=55	=55	=55	=55	=55	=55
[4.F/	[4.F\	kwie-	kwie-	.	8ee-/]	8cc\]	.	.	.
.	.	.	.	.	8dd-/	8b-\	-dzi	.	.
.	.	.	.	.	8ccn/	8an\	ku	.	.
(4F/]	(4F\]	.	.	.	[4.ee-/	[4.ccn\	kwie-	.	.
8G-/	8G-\	.	.	.	.	.	.	.	.
=56	=56	=56	=56	=56	=56	=56	=56	=56	=56
4.F/	4.F\	.	.	.	8ee-/]	8cc\]	.	.	.
.	.	.	.	.	8dd-/	8b-\	-ciu	.	.
.	.	.	.	.	8ccn/	8an\	bez	.	.
8F/)	8F\)	.	.	.	(4.ff/	(4.dd-\	koń-	.	.
8Gn/	8G\	-ciu	-ciu	.	.	.	.	.	.
8An/	8A\	bez	bez	.	.	.	.	.	.
!!LO:LB:g=original
=57	=57	=57	=57	=57	=57	=57	=57	=57	=57
[4.B-/	[4.B-\	koń-	kooń-	.	4ff/	4dd-\	.	.	.
.	.	.	.	.	8een/)	8ccn\)	.	.	.
8B-/]	8B-\]	.	.	.	[4.ff/	[4.dd-\	-ca.	.	.
8A-/	8A-X\	-ca	-ca	.	.	.	.	.	.
8G-/	8G-X\	za-	za-	.	.	.	.	.	.
=58	=58	=58	=58	=58	=58	=58	=58	=58	=58
[2.F/	[2.F\	-wo-	-wo-	.	4ff/]	4dd-\]	.	.	.
.	.	.	.	.	8ccn/	8an\	za-	.	.
.	.	.	.	.	8ee-/L	8ccn\L	-wo-	.	.
.	.	.	.	.	8dd-/	8b-\	.	.	.
.	.	.	.	.	8b-/J	8g-\J	.	.	.
=59	=59	=59	=59	=59	=59	=59	=59	=59	=59
8F/]	8F\]	.	.	.	4ccn/	4an\	-dzi	.	.
8E-/	8E-\	-dzi	-dzi	.	.	.	.	.	.
8F/	8F\	ża-	ża-	.	8r	2ryy	.	.	.
(4D-/	(4D-\	-ło-	-ło-	.	4r	.	.	.	.
8Cn/)	8C\)	.	.	.	8r	.	.	.	.
*	*	*	*	*	*v	*v	*	*	*
=60	=60	=60	=60	=60	=60	=60	=60	=60
4.BB-/	4.BB-\	-sne	-sne	.	2.r	.	.	.
4.G-/	4.G-\	ach!	ach!	.	.	.	.	.
=61	=61	=61	=61	=61	=61	=61	=61	=61
*	*	*	*	*	*^	*	*	*
4.F/	4.F\	ach!	ach	.	4r	4.ryy	.	.	.
.	.	.	.	.	8r	.	.	.	.
4.An/	4.F\	ach!	ach!	.	4.ccn/	4.cc\	ach!	.	.
!!LO:LB:g=original
=62	=62	=62	=62	=62	=62	=62	=62	=62	=62
!	!	!	!	!	!	!	!	!	!LO:DY:a
[2.B-/	[2.E-\	.	.	fp	[2.gg-/	[2.ccn\	ach!	.	fp
=63	=63	=63	=63	=63	=63	=63	=63	=63	=63
4.B-/]	4.E-\]	.	.	.	4.gg-/]	4.cc\]	.	.	.
4.An/	4.E-\	.	.	.	4.ccn/	4.ccn\	ach!	.	.
=64	=64	=64	=64	=64	=64	=64	=64	=64	=64
!	!	!	!	!	!	!	!	!	!LO:DY:a
[2.B-/	[2.BB-\ [2.F	.	.	pp	[2.ff/	[2.ddn\	ach!	.	pp
=65	=65	=65	=65	=65	=65	=65	=65	=65	=65
4.B-,/]	4.BB-\] 4.F]	.	.	.	4.ff,/]	4.dd\]	.	.	.
4.B-/	4.BB-\ 4.F	.	.	.	4.ff/	4.dd-X\	Oj	.	.
*v	*v	*	*	*	*	*	*	*	*
*	*	*	*	*v	*v	*	*	*
=66||	=66||	=66||	=66||	=66||	=66||	=66||	=66||
*k[b-e-]	*	*	*	*k[b-e-]	*	*	*
*M4/4	*	*	*	*M4/4	*	*	*
*met(c)	*	*	*	*met(c)	*	*	*
*^	*	*	*	*^	*	*	*
!	!	!	!	!	!LO:TX:t=P:problem=brak oznaczenia zmiany metrum	!	!	!	!
4B-/	4BB-\ 4F	nie	.	.	4gg/	4dd\	Nie	nie	.
8A/	8BB-\ 8F	ta	.	.	8ff/	8dd\	ta	ta	.
8A/	8BB-\ 8F	to	.	.	8ff/	8dd\	to	to	.
(4G/	4.BB-\	wio-	.	.	4b-/	(4b-\	wio-	wio-	.
8G-X/)	.	.	.	.	8ee-/	8an\)	.	-sna,	.
8G-/	8BB-\	-sna	.	.	8ee-/	8a\	-sna,	co	.
=67	=67	=67	=67	=67	=67	=67	=67	=67	=67
8F/	[2BB-\	nie,	.	.	8dd/	8b-\	nie	mi-	.
8r	.	.	.	.	16cc/	8r	.	-ja	.
.	.	.	.	.	16cc/	.	.	rok-	.
4r	.	.	.	.	8b-/L	4r	.	rocz-	.
.	.	.	.	.	8g/J	.	.	.	.
4r	8BB-\]	.	.	.	8f/	4r	.	-nie,	.
.	8D\	nie	.	.	8r	.	.	.	.
4r	8C\	dla	.	.	4r	4r	.	.	.
.	16BB-\	nas	.	.	.	.	.	.	.
.	16BB-\	jej	.	.	.	.	.	.	.
!!LO:LB:g=original
=68	=68	=68	=68	=68	=68	=68	=68	=68	=68
4B-/	4B-\	maj,	.	.	4r	4ryy	.	.	.
4G/	8G\L	nie	.	.	4dd/	4b-\	nie	.	.
.	8F\J	.	.	.	.	.	.	.	.
4G/	4En\	dla	.	.	4cc/	4b-\	dla	.	.
8G/	8D\	nas	.	.	8dd/	8b-\	nas	.	.
8G/	8C\	jej	.	.	8een/	8b-\	jej	.	.
=69	=69	=69	=69	=69	=69	=69	=69	=69	=69
(8F/L	(2F\	maj!	.	.	(2ff/	(8a\L	maj–	.	.
8A/	.	.	.	.	.	8cc\	.	.	.
8c/	.	.	.	.	.	8ee-\	.	.	.
8B-/J	.	.	.	.	.	8dd\J	.	.	.
4A/)	4F\)	.	.	.	4.ff/)	4cc\)	.	.	.
4r	4r	.	.	.	.	4r	.	.	.
.	.	.	.	.	8ee-/	.	.	o-	.
=70	=70	=70	=70	=70	=70	=70	=70	=70	=70
8r	1r	.	.	.	(2dd/	8r	.	-bo-	.
8F#X/	.	.	.	.	.	8a\	ach	.	.
8D/L	.	.	.	.	.	8f#X\L	wio-	.	.
8A/J	.	.	.	.	.	8cc\J	.	.	.
8G/	.	.	.	.	8dd/L	8b-\	-sna	.	.
8r	.	.	.	.	8b-/J)	8r	.	.	.
4r	.	.	.	.	8ff#y/	4r	.	-ja	.
.	.	.	.	.	8ee-/	.	.	ach	.
=71	=71	=71	=71	=71	=71	=71	=71	=71	=71
8r	4r	.	.	.	4dd/	8r	.	wio-	.
8F/	.	.	.	.	.	8a\	do-	.	.
8D/	8ryy	.	.	.	8dd/	8f#X\	-pie-	-sna	.
8A/	8F#X\	ach	.	.	8dd/	8cc\	-ro	do-	.
8G/L	8G\L	wios-	.	.	4dd/	4b-\	wio-	-pie-	.
8A-X/J	8Fn\J	.	.	.	.	.	.	.	.
8A-/	8E-\	-na	.	.	8ee-/	8b-\	-sna	-ro	.
8A-/	8D\	się	.	.	8ff/	8b-\	się	się	.
!!LO:PB:g=original
=72	=72	=72	=72	=72	=72	=72	=72	=72	=72
2G/	(4E-\	pocz-	pocz-	.	4gg/	(4b-\	pocz-	pocz-	.
.	4D\)	.	.	.	8ff/	4bn\)	.	-nie	.
.	.	.	.	.	8ff/	.	.	gdy	.
8G/	8C\	-nie,	-nie,	.	8ee-/L	8cc\	-nie,	wró-	.
8r	8ryy	.	.	.	8g/J	8r	.	.	.
4r	4ryy	.	.	.	8a/	4r	.	-cim	.
.	.	.	.	.	8b/	.	.	sie	.
=73	=73	=73	=73	=73	=73	=73	=73	=73	=73
8r	4r	.	.	.	4dd/	4r	.	w raj	.
8F/	.	.	gdy	.	.	.	.	.	.
8G/	4E-\	och	wró-	.	8cc/	8r	.	wró-	.
8A/	.	-cim	-cim	.	8b-/	8f\	och	-cim	.
(4B-/	(4D\	w raj	w raj	.	(4ff/	(4f\	w raj	w raj	.
8A/)	8F\)	.	.	.	8aa/)	8cc\)	.	.	.
8A/	8E-\	gdy	gdy	.	8gg/	8cc\	gdy	gdy	.
=74	=74	=74	=74	=74	=74	=74	=74	=74	=74
4A-X/	(4D\	wró-	wró-	.	4ff/	4cc\	wró-	wró-	.
(2G/	8G\L	.	-cim	.	(2b-/	[2b-\	-cim	-cim	.
.	8F\	.	.	.	.	.	.	.	.
.	8E-\)	.	.	.	.	.	.	.	.
.	8D\J	.	.	.	.	.	.	.	.
8G-X/)	8C\	-cim	.	.	8ff/)	8b-\]	.	.	.
8G-/	8C\	się	się	.	8ee-/	8b-\	gdy	gdy	.
=75	=75	=75	=75	=75	=75	=75	=75	=75	=75
4F/	4F\	w raj	w raj,–	.	2.dd/	2.b-\	wró-	wró-	.
4r	8A\L	gdy	.	.	.	.	.	.	.
.	8G\J	.	.	.	.	.	.	.	.
4r	4F\	wró-	.	.	.	.	.	.	.
4E-/	4FF\	-cim	och!	.	4cc/	4a\	-cim	-cim	.
!!LO:LB:g=original
=76	=76	=76	=76	=76	=76	=76	=76	=76	=76
4D/	4BB-\	w raj	.	.	4b-/	4f\	w raj.	w raj!–	.
4r	4BB-\	o	.	.	4r	4ryy	.	.	.
4r	[2F\	nie	.	.	4r	4ryy	.	.	.
4r	.	.	.	.	4dd/	4b-\	o	.	.
=77	=77	=77	=77	=77	=77	=77	=77	=77	=77
1r	4F\]	.	.	.	4.cc/	4.a\	nie	.	.
.	8E-\	ta	.	.	.	.	.	.	.
.	8F\	to	.	.	8cc/	8a\	ta	.	.
.	(4D\	wio-	.	.	4ff/	4a-X\	wio-	.	.
.	(4C\)	.	.	.	8ee-/	8a-\	-sna	.	.
.	.	.	.	.	8ee-/	8a-\	co	.	.
=78	=78	=78	=78	=78	=78	=78	=78	=78	=78
1r	2BB-\)	.	.	.	4dd/	4a-X\	mi-	.	.
.	.	.	.	.	8cc/	8a-\	-ja	.	.
.	.	.	.	.	8dd/	8a-\	rok-	.	.
.	4BB-\	-sna	.	.	[2b-/	(4a-\	-rocz-	.	.
.	4BB-\	nie	.	.	.	8g\L)	.	.	.
.	.	.	.	.	.	8f\J	.	.	.
=79	=79	=79	=79	=79	=79	=79	=79	=79	=79
4r	[1BB-	dla	.	.	4b-/]	4a\	.	.	.
4E-/	.	nie	.	.	4b-/	4g\	-nie	.	.
[2B-/	.	dla	.	.	4r	4r	.	.	.
.	.	.	.	.	4b-/	4g\	nie	.	.
!!LO:LB:g=original
=80	=80	=80	=80	=80	=80	=80	=80	=80	=80
4B-/]	4BB-\]	.	.	.	4cc/	4g\	dla	dla	.
8A-X/	[2BB-\	nas	.	.	8dd/	4f\	nas	nas	.
8B-/	.	.	.	.	8dd/	.	.	jej	.
4G/	.	.	.	.	4.ee-/	(4b-\	maj	maj	.
8G-X/	8BB-\]	.	.	.	.	8an\)	.	.	.
8G-/	8BB-\	jej	.	.	8ee-/	8a\	jej	jej	.
=81	=81	=81	=81	=81	=81	=81	=81	=81	=81
4F/	4BB-\	maj	.	.	4dd/	4b-\	maj.–	maj!–	.
4r	4BB-\	O-	.	.	4ryy	4r	.	.	.
4r	[2F\	-bo-	.	.	4r	4r	.	.	.
4r	.	.	.	.	4r	4g\	O-	.	.
=82	=82	=82	=82	=82	=82	=82	=82	=82	=82
1r	4F\]	.	.	.	1r	2.cc\	-bo-	.	.
.	8E-\	-ja,	.	.	.	.	.	.	.
.	8F\	och	.	.	.	.	.	.	.
.	(4D\	wio-	.	.	.	.	.	.	.
.	[4G\)	.	.	.	.	8b-\	-ja	.	.
.	.	.	.	.	.	8cc\	och	.	.
=83	=83	=83	=83	=83	=83	=83	=83	=83	=83
1r	4G\]	.	.	.	4r	2a\	wio-	.	.
.	8F\	-sna	.	.	4cc/	.	.	.	.
.	8E-\	się	.	.	.	.	.	.	.
.	(4D\	pocz-	.	.	4ff/	4a-X\	-sna	.	.
.	4C\)	.	.	.	4ee-/	4a-\	do-	.	.
!!LO:LB:g=original
=84	=84	=84	=84	=84	=84	=84	=84	=84	=84
1r	2BB-\	-nie	.	.	4dd/	4a-X\	-pie-	wio-	.
.	.	.	.	.	8cc/	8a-\	-ro	-sna	.
.	.	.	.	.	8dd/	8a-\	się	się	.
.	2BB-\	gdy	.	.	[2b-/	(4a-\	pocz-	pocz-	.
.	.	.	.	.	.	8g\L	.	.	.
.	.	.	.	.	.	8f\J	.	.	.
=85	=85	=85	=85	=85	=85	=85	=85	=85	=85
4r	[1BB-	wró-	.	.	4b-/]	4a-X\)	.	.	.
4E-/	.	.	gdy	.	4b-/	4g\	-nie	-nie	.
2B-/	.	.	wró-	.	4r	4ryy	.	.	.
.	.	.	.	.	4b-/	4g\	gdy	.	.
=86	=86	=86	=86	=86	=86	=86	=86	=86	=86
4B-/	4BB-\]	.	.	.	(4cc/	(4g-X\	wró-	.	.
8A-X/	[2BB-\	-cim	-cim	.	4dd/)	4f\)	.	.	.
8B-/	.	.	się	.	.	.	.	.	.
(4G-X/	.	.	w raj	.	4.ee-/	(4b-\	-cim	.	.
8F/)	8BB-\]	.	.	.	.	8an\)	.	.	.
8F/	8BB-\	się	och	.	8ee-/	8a\	się	.	.
=87	=87	=87	=87	=87	=87	=87	=87	=87	=87
4F/	4BB-\	w raj!–	w raj,	.	4dd/	4b-\	w raj,	.	.
8r	8ryy	.	.	.	8r	8ryy	.	.	.
!	!	!	!	!	!	!	!	!	!LO:DY:a
8F/	8BB-\	.	gdy	.	8dd/	8b-\	gdy	.	ppp
4F/	4BB-\	.	wro-	.	4dd/	4b-\	wró-	.	.
8F/	8BB-\	.	-cim	.	8dd/	8b-\	-cim	.	.
8F/	8BB-\	.	się	.	8dd/	8b-\	się	.	.
=88	=88	=88	=88	=88	=88	=88	=88	=88	=88
1F	1BB-	.	w raj.–	.	1dd;	1b-	w raj.	.	.
*v	*v	*	*	*	*	*	*	*	*
*	*	*	*	*v	*v	*	*	*
==	==	==	==	==	==	==	==
*-	*-	*-	*-	*-	*-	*-	*-
!!!system-decoration: [(s1,s2)]
!!!ENC: Andrzej Gręziak
!!!END: 2022-02-19
!!!AIN: 1 bass 1 soprn
!!!ENC: Urszula Świątek
!!!END: 2022-02-24
